icons/lines/microscope.svg

<svg xmlns="http://www.w3.org/2000/svg" width="24" height="24" viewBox="0 0 24 24" fill="none" stroke="currentColor" stroke-width="2" stroke-linecap="round" stroke-linejoin="round" >
  <path d="M15.0291 10.77L20.6891 6.97998C21.2591 6.59998 21.4091 5.81998 21.0291 5.25998L19.2091 2.54996C18.8291 1.97996 18.0491 1.82996 17.4891 2.20996L11.8291 5.99997L15.0291 10.77Z"/>
  <path d="M12.1732 6.4792L7.39551 9.67908L9.95541 13.5012L14.7331 10.3013L12.1732 6.4792Z"/>
  <path d="M5.82955 15.8999L9.77955 13.2599L7.53955 9.91992L3.58955 12.5599C3.12955 12.8699 3.00955 13.4899 3.31955 13.9499L4.44955 15.6299C4.74955 16.0799 5.36955 16.1999 5.82955 15.8999Z"/>
  <path d="M12.0496 12.2L7.55957 21.9999"/>
  <path d="M12 12.2L16.44 21.9999"/>
  </svg>

<svg xmlns="http://www.w3.org/2000/svg" width="24" height="24" viewBox="0 0 24 24" fill="none" stroke="currentColor" stroke-width="2" stroke-linecap="round" stroke-linejoin="round">
  <path d="m12 12.2 4.44 9.8" />
  <path d="M12.05 12.2 7.56 22" />
  <path d="m12.173 6.48-4.777 3.2 2.56 3.821 4.777-3.2z" />
  <path d="m15.03 10.77 5.66-3.79a1.24 1.24 0 0 0 .34-1.72l-1.82-2.71a1.24 1.24 0 0 0-1.72-.34L11.83 6z" />
  <path d="m7.54 9.92-3.95 2.64a1 1 0 0 0-.27 1.39l1.13 1.68a1 1 0 0 0 1.38.27l3.95-2.64" />
</svg>
